X: 1581
T: The Son Of Prosperity
M:C|
L:1/8
R:Hornpipe
B:O'Neill's 1581
N:"Collected by F.O'Neill."
Z:Transcribed by Michael D. Long, 9/28/98
K:D
(AG)|FDFA dABG|(F<A) D2 D2 (AG)|FDFA dABG|(E<G) C2 C2 (AG)|\
FDFA dABG|(F<A) D2 D2 (AG)|FDAD (3(EFG) CE|F2 D2 D2:|
|:(3(ABc)|dedc AGAB|cdcA d2 (3(ABc)|dedc AGEF|(E<G) C2 C2 (3(ABc)|\
dedc ABAG|FEFG ABAG|FDAD (3(EFG) CE|F2 D2 D2:|


